Adwaita++-Light/panel/16/preferences-desktop-accessibility-panel.svg

<svg height="16" width="16" xmlns="http://www.w3.org/2000/svg">
  <path d="m7.5 0c-1.38 0-2.5 1.12-2.5 2.5s1.12 2.5 2.5 2.5 2.5-1.12 2.5-2.5-1.12-2.5-2.5-2.5zm-6.5 6v2h4v7h2v-4h1v4h2v-7h4v-2z" fill="#444"/>
</svg>

<svg xmlns="http://www.w3.org/2000/svg" width="16" height="16" version="1.1">
 <defs>
  <style id="current-color-scheme" type="text/css">
   .ColorScheme-Text { color:#444444; } .ColorScheme-Highlight { color:#4285f4; }
  </style>
 </defs>
 <path style="fill:currentColor" class="ColorScheme-Text" d="M 7.5,0 C 6.12,0 5,1.12 5,2.5 5,3.88 6.12,5 7.5,5 8.88,5 10,3.88 10,2.5 10,1.12 8.88,0 7.5,0 Z M 1,6 V 8 H 5 V 15 H 7 V 11 H 8 V 15 H 10 V 8 H 14 V 6 Z"/>
</svg>
